X:1
T:Terribilis est locus
T:TERRIBILIS EST LOCUS - Wie schauervoll
T:Sammlung MUSICA SACRA No. 42
T:MASTIOLETTI
T:© Edition Monika Feinen, Creative Commons Attribution-NonCommercial-ShareAlike 4.0
T:© Edition Monika Feinen, Creative Commons Attribution-NonCommercial-ShareAlike 4.0
T:© Edition Monika Feinen, Creative Commons Attribution-NonCommercial-ShareAlike 4.0
T:© Edition Monika Feinen, Creative Commons Attribution-NonCommercial-ShareAlike 4.0
C:Mastioletti
Z:© Edition Monika Feinen, Creative Commons Attribution-NonCommercial-ShareAlike 4.0
%%score [ 1 2 3 ] ( 4 5 )
L:1/8
M:4/2
K:C
V:1 treble-8 nm="TENORE I."
V:2 treble-8 nm="TENORE II."
V:3 bass nm="BASSO."
V:4 bass nm="ORGANO.\n(ad lib.)"
V:5 bass 
V:1
 z4 e4 e6 e2 | e4 e4 e4 d2 c2 | d4 d4 e6 e2 | e4 c4 c4 c4 | (c4 B4) c8 | z16 | G4 G2 G2 A4 B4 | %7
w: Ter- ri- bi-|lis, ter- ri- bi- *|lis ter- ri- bi-|lis est lo- cus|i- * ste||hic do- mus De- i|
w: Wie schau- er-|voll, wie schau- er- *|voll, wie schau- er-|voll, sind die- se|Hal- * len||hier in des Ew'- gen|
 c4 c2 c2 c4 c4 | B4 d4 e4 c4 | B4 A4 B8 | d4 d4 e6 e2 | e4 e4 e6 e2 | d8 d4 e2 d2 | d8 e4 e4 | %14
w: est, do- mus De- i|est et por- ta|cae- * li|et vo- ca- bi-|tur, vo- ca- bi-|tur au- la _|De- i, vo-|
w: Haus, in des Ew'- gen|Haus, des Him- mels|Pfor- * te,|die zum ew'- gen|Glan- ze, die zum|e- wi- gen _|Glan- ze, zum|
 e6 e2 d4 d4 | d6 d2 e4 c4 | c4 d2 c2 B4 c4 | c4 B4 !fermata!c8 || x96 ||[M:3/2] e8 e4 | %20
w: ca- bi- tur, vo-|ca- bi- tur, vo-|ca- bi- tur au- la|De- * i.||Con- cu-|
w: ew'- gen Glan- ze|füh- ret, zu dem|e- wi- gen Glan- ze|Got- * tes.||Strebt die|
 e4 d2 c2 d4 | f8 f4 | f4 e2 d2 e4 | c8 c4 | c4 c4 c4 | c6 c2 c4 | c4 B4 c4 | c4 B4 z4 | e6 e2 e4 | %29
w: pi- * * scit,|con- cu-|pi- * * scit,|con- cu-|pi- scit et|de- fi- cit|a- ni- ma|me- a,|de- fi- cit|
w: See- * * le,|strebt die|See- * * le,|strebt die|See- le will|wie- der in|Za- gen zer-|flie- ßen,|wie- der in|
 e4 e4 e4 | e4 e4 e4 | e6 e2 e4 | e8 d4 | !fermata!e12 ||[M:4/2] x32 x32 x16 || e6 e2 d4 d4 | %36
w: a- ni- ma|me- a in|a- tri- o|Do- mi-|ni.||Si- cut e- rat|
w: Za- gen zer-|flie- ßen beim|schau- ern- den|Nah'n des|Herrn.||Wie von An- be-|
 c4 c4 c4 B4 | c4 e4 d4 d4 | c8 B4 d2 d2 | d4 d2 d2 d4 d4 | d8 d4 B2 B2 | c4 c2 c2 c4 c4 | %42
w: in prin- ci- pi-|o et nunc et|sem- per et in|se- cu- la se- cu-|lo- rum, et in|se- cu- la se- cu-|
w: ginn der Welt es|war soll es nun|blei- ben durch die|fer- ne- sten E- wig-|kei- ten, durch die|fer- ne- sten E- wig-|
 c4 c4 c4 B4 | c4 e4 d8 | c4 c8 B4 | c4 B4 !fermata!c8 |] %46
w: lo- rum a- *|men, a- *|men, a- *|men, a- men.|
w: kei- ten, A- *|men, A- *|men, A- *|men, A- men.|
V:2
 z4 c4 c6 c2 | c4 c4 c4 B2 A2 | B4 B4 c6 c2 | c4 G4 A4 G4 | F8 E8 | C4 C2 C2 E4 ^F4 | %6
w: Ter- ri- bi-|lis, ter- ri- bi- *|lis ter- ri- bi-|lis est lo- cus|i- ste|hic do- mus De- i|
w: Wie schau- er-|voll, wie schau- er- *|voll, wie schau- er-|voll, sind die- se|Hal- len|hier in des Ew'- gen|
 G4 G2 G2 G4 =F4 | E8 z4 A4 | G4 G4 G4 G4 | G4 ^F4 G8 | B4 B4 B6 B2 | c4 c4 c6 c2 | B8 B4 c4 | %13
w: est, do- mus De- i|est et|por- ta coe- li|cae- * li|et vo- ca- bi|tur, vo- ca- bi-|tur au- la|
w: Haus, in des Ew'- gen|Haus, des|Him- mels Pfor- te|Pfor- * te,|die zum ew'- gen|Glan- ze, die zum|e- wi- gen|
 c4 B4 c4 c4 | c6 c2 B4 B4 | B6 B2 c4 G4 | A4 A2 A2 G4 G2 F2 | E4 D4 !fermata!E8 || x96 || %19
w: De- * i, vo-|ca- bi- tur, vo-|ca- bi- tur, vo-|ca- bi- tur au- la _|De- * i.||
w: Glan- * ze, zum|ew'- gen Glan- ze|füh- ret, zu dem|e- wi- gen Glan- ze _|Got- * tes.||
[M:3/2] c8 c4 | c4 B2 A2 B4 | A8 d4 | d4 c2 B2 c4 | G8 G4 | A4 A4 A4 | G6 G2 G4 | F6 F2 E4 | %27
w: Con- cu-|pi- * * scit,|con- cu-|pi- * * scit,|con- cu-|pi- scit et|de- fi- cit|a- ni- ma|
w: Strebt die|See- * * le,|strebt die|See- * * le,|strebt die|See- le will|wie- der in|Za- gen zer-|
 E4 D4 z4 | B6 B2 B4 | B4 B4 B4 | c4 c4 c4 | c6 c2 c4 | A8 A4 | !fermata!^G12 || %34
w: me- a,|de- fi- cit|a- ni- ma|me- a in|a- tri- o|Do- mi-|ni.|
w: flie- ßen,|wie- der in|Za- gen zer-|flie- ßen beim|schau- ern- den|Nah'n des|Herrn.|
[M:4/2] x32 x32 x16 || c6 c2 c4 B4 | G4 A4 G6 G2 | G4 G4 G4 G4 | G4 ^F4 G4 B2 B2 | B4 B2 B2 B4 c4 | %40
w: |Si- cut e- rat|in prin- ci- pi-|o et nunc et|sem- * per et in|se- cu- la se- cu-|
w: |Wie von An- be-|ginn der Welt es|war soll es nun|blei- * ben durch die|fer- ne- sten E- wig-|
 B8 B4 G2 G2 | G4 G2 G2 G4 G4 | A4 G4 G8 | G4 G4 A4 B4 | c4 G4 A4 G4 | G4 G4 !fermata!G8 |] %46
w: lo- rum, et in|se- cu- la se- cu-|lo- rum a-|men, a- * *|men, a- * *|men, a- men.|
w: kei- ten, durch die|fer- ne- sten E- wig-|kei- ten, A-|men, A- * *|men, A- * *|men, A- men.|
V:3
 z4 C,4 C,6 C,2 | C,2 D,2 E,2 ^F,2 G,6 G,2 | G,2 A,2 B,2 G,2 C6 C,2 | C,4 C,4 =F,4 E,4 | %4
w: Ter- ri- bi-|lis, _ ter- * ri- *|lis * ter- * ri- bi-|lis est lo- cus|
w: Wie schau- er-|voll, _ wie _ schau- *|voll, * wie _ schau- er-|voll, sind die- se|
 ((D,4 G,4)) C,8 | z16 | z16 | C,4 C,2 C,2 E,4 ^F,4 | G,4 B,,4 C,4 C,4 | D,8 G,8 | %10
w: i- * ste|||hic do- mus De- i|est et por- ta|cae- li|
w: Hal- * len|||hier in des Ew'- gen|Haus, des Him- mels|Pfor- te,|
 G,4 G,4 ^G,6 G,2 | A,4 A,4 ^F,6 F,2 | G,8 =F,4 E,2 F,2 | G,4 G,,4 C,4 C4 | ^F,6 F,2 G,4 G,4 | %15
w: et vo- ca- bi|tur, vo- ca- bi-|tur au- la _|De- * i, vo-|ca- bi- tur, vo-|
w: die zum ew'- gen|Glan- ze, die zum|e- wi- gen _|Glan- * ze, zum|ew'- gen Glan- ze|
 =F,6 F,2 E,4 E,4 | F,4 F,2 F,2 F,4 E,2 F,2 | G,4 G,,4 !fermata!C,8 || %18
w: ca- bi- tur, vo-|ca- bi- tur au- la _|De- * i.|
w: füh- ret, zu dem|e- wi- gen Glan- ze _|Got- * tes.|
 C,16 E,16 G,16 G,16 A,16 G,16 ||[M:3/2] C,6 D,2 E,2 C,2 | G,8 G,4 | D,6 E,2 F,2 D,2 | A,8 A,4 | %23
w: Quam _ _ di- lec- tat|Con- * cu- *|pi- scit,|con- * cu- *|pi- scit,|
w: O _ _ wie won- nig|Strebt _ die _|See- le,|strebt _ die _|See- le,|
 E,8 E,4 | F,4 F,4 F,4 | E,6 E,2 E,4 | D,6 D,2 C,4 | G,4 G,4 z4 | ^G,6 G,2 G,4 | ^G,4 G,4 G,4 | %30
w: con- cu-|pi- scit et|de- fi- cit|a- ni- ma|me- a,|de- fi- cit|a- ni- ma|
w: strebt die|See- le will|wie- der in|Za- gen zer-|flie- ßen,|wie- der in|Za- gen zer-|
 A,4 A,4 A,4 | A,6 A,2 A,4 | F,8 F,4 | !fermata!E,12 ||[M:4/2] C,16 E,16 G,16 A,16 G,16 || %35
w: me- a in|a- tri- o|Do- mi-|ni.|Glo- ri- a pa- tri|
w: flie- ßen beim|schau- ern- den|Nah'n des|Herrn.|Preis sei dem Va- ter|
 C,6 C,2 G,4 G,4 | E,4 F,4 G,4 G,,4 | C,4 C4 B,4 B,4 | A,4 D,4 G,8 | z8 z4 G,2 G,2 | %40
w: Si- cut e- rat|in prin- ci- pi-|o et nunc et|sem- * per|et in|
w: Wie von An- be-|ginn der Welt es|war soll es nun|blei- * ben|durch die|
 G,4 G,2 G,2 G,4 G,4 | E,8 E,4 E,2 E,2 | F,4 C,4 G,4 G,,4 | C,4 C4 F,4 G,4 | A,4 E,4 F,4 G,4 | %45
w: se- cu- la se- cu-|lo- rum, se- cu-|lo- rum a- *|men, a- * *|men, a- * *|
w: fer- ne- sten E- wig-|kei- ten, durch die|E- wig- kei- *|ten, A- * *|men, A- * *|
 C,4 G,4 !fermata!C,8 |] %46
w: men, a- men.|
w: men, A- men.|
V:4
 z4 C,4 C,6 C,2 | C,2 D,2 E,2 ^F,2 G,6 G,2 | G,2 A,2 B,2 G,2 C6 C,2 | C,4 C,4 =F,4 E,4 | %4
 D,4 G,4 C,8 | C,4 C,2 C,2 E,4 ^F,4 | G,4 G,2 G,2 A,4 B,4 | C,4 C,2 C,2 E,4 ^F,4 | %8
 G,4 B,,4 C,4 C,4 | D,8 G,8 | G,4 G,4 ^G,6 G,2 | A,4 A,4 ^F,6 F,2 | G,8 =F,4 E,2 F,2 | %13
 G,4 G,,4 C,4 C4 | ^F,6 F,2 G,4 G,4 | =F,6 F,2 E,4 E,4 | F,4 F,2 F,2 F,4 E,2 F,2 | %17
 G,4 G,,4 !fermata!C,8 || x96 ||[M:3/2] C,6 D,2 E,2 C,2 | G,8 G,4 | _D,6 E,2 F,2 D,2 | A,8 A,4 | %23
 E,8 E,4 | F,4 F,4 F,4 | E,6 E,2 E,4 | D,6 D,2 C,4 | G,4 G,4 z4 | ^G,6 G,2 G,4 | ^G,4 G,4 G,4 | %30
 A,4 A,4 A,4 | A,6 A,2 A,4 | F,8 F,4 | !fermata!E,12 ||[M:4/2] x32 x32 x16 || C,6 C,2 G,4 G,4 | %36
 E,4 F,4 G,4 G,,4 | C,4 C4 B,4 B,4 | A,4 D,4 G,8 | G,4 G,4 G,4 G,2 G,2 | G,4 G,2 G,2 G,4 G,4 | %41
 E,8 E,4 E,2 E,2 | F,4 C,4 G,4 G,,4 | C,4 C4 F,4 G,4 | A,4 E,4 F,4 G,4 | C,4 G,4 !fermata!C,8 |] %46
V:5
 x16 | x16 | x16 | x16 | x16 | x16 | x8 F,4 =F,4 | x16 | x16 | x16 | x16 | x16 | x16 | x16 | x16 | %15
 x16 | x16 | x16 || x96 ||[M:3/2] x12 | x12 | x12 | x12 | x12 | x12 | x12 | x12 | x12 | x12 | x12 | %30
 x12 | x12 | x12 | x12 ||[M:4/2] x80 || x16 | x16 | x16 | x16 | x16 | x16 | x16 | x16 | x16 | x16 | %45
 x16 |] %46

